X: 1099
T: The Mug-house.
%R: waltz, jig
B: Henry Playford "Apollo's Banquet", London 1687 (5th Edition)
F: https://archive.org/details/apollosbanquetco01rugg
Z: 2017 John Chambers <jc:trillian.mit.edu>
M: 3/2
L: 1/4
K: G
% - - - - - - - - - -
d |\
B>cd ece | dBg B>AG | AFA A2c |\
B>cd ece | fdfg2d | BGG G2 :|
|: B |\
AFA AFA | AFd AFB | GEE E2A |\
FDd Bed | gea fdb | gaf g2 |]
% - - - - - - - - - -

%%sep 1 1 500
%%sep 1 1 500

